dist/flags/s/548.svg

<svg width="16" height="12" viewBox="0 0 16 12" fill="none" xmlns="http://www.w3.org/2000/svg">
<mask id="mask0" mask-type="alpha" maskUnits="userSpaceOnUse" x="0" y="0" width="16" height="12">
<rect width="16" height="12" fill="white"/>
</mask>
<g mask="url(#mask0)">
<path fill-rule="evenodd" clip-rule="evenodd" d="M0 0H16V12H0V0Z" fill="#F7FCFF"/>
<path fill-rule="evenodd" clip-rule="evenodd" d="M0 0V4H16V0H0Z" fill="#C51918"/>
<path fill-rule="evenodd" clip-rule="evenodd" d="M0 8V12H16V8H0Z" fill="#5EAA22"/>
<path fill-rule="evenodd" clip-rule="evenodd" d="M0 -1L8.33479 6L0 13V-1Z" fill="#272727"/>
<mask id="path-7-outside-1" maskUnits="userSpaceOnUse" x="-1" y="-4.67749" width="18" height="21" fill="black">
<rect fill="white" x="-1" y="-4.67749" width="18" height="21"/>
<path fill-rule="evenodd" clip-rule="evenodd" d="M0 -1.67749L8.70415 4.99998H16V6.99998H8.58469L0 13.4057V11.1701L7 5.99998L0 0.767236V-1.67749Z"/>
</mask>
<path fill-rule="evenodd" clip-rule="evenodd" d="M0 -1.67749L8.70415 4.99998H16V6.99998H8.58469L0 13.4057V11.1701L7 5.99998L0 0.767236V-1.67749Z" fill="#FFD018"/>
<path d="M8.70415 4.99998L8.09547 5.7934L8.36475 5.99998H8.70415V4.99998ZM0 -1.67749L0.608678 -2.47091L-1 -3.70502V-1.67749H0ZM16 4.99998H17V3.99998H16V4.99998ZM16 6.99998V7.99998H17V6.99998H16ZM8.58469 6.99998V5.99998H8.25272L7.98665 6.19852L8.58469 6.99998ZM0 13.4057H-1V15.3996L0.598041 14.2072L0 13.4057ZM0 11.1701L-0.594107 10.3657L-1 10.6655V11.1701H0ZM7 5.99998L7.59411 6.80437L8.67665 6.00482L7.59874 5.19904L7 5.99998ZM0 0.767236H-1V1.26822L-0.598736 1.56818L0 0.767236ZM9.31283 4.20657L0.608678 -2.47091L-0.608678 -0.884073L8.09547 5.7934L9.31283 4.20657ZM16 3.99998H8.70415V5.99998H16V3.99998ZM17 6.99998V4.99998H15V6.99998H17ZM8.58469 7.99998H16V5.99998H8.58469V7.99998ZM0.598041 14.2072L9.18273 7.80145L7.98665 6.19852L-0.598041 12.6043L0.598041 14.2072ZM-1 11.1701V13.4057H1V11.1701H-1ZM6.40589 5.1956L-0.594107 10.3657L0.594107 11.9745L7.59411 6.80437L6.40589 5.1956ZM-0.598736 1.56818L6.40126 6.80093L7.59874 5.19904L0.598736 -0.0337108L-0.598736 1.56818ZM-1 -1.67749V0.767236H1V-1.67749H-1Z" fill="#272727" mask="url(#path-7-outside-1)"/>
<path d="M2.43684 8.38408L2.43784 7.5939C3.142 7.43856 3.60848 7.23649 3.83554 6.99349C4.39466 6.30442 4.02298 4.68998 2.87429 4.70053C2.3052 4.70053 1.7167 4.97172 1.7167 5.60999C1.7167 6.40271 1.87984 6.74159 2.43784 6.74159C2.99237 6.74159 3.19567 6.77123 3.56094 6.27337L3.95734 6.39585C3.56591 6.92935 3.03829 7.35078 2.43684 7.35078C1.44607 7.35078 0.906891 6.60376 0.906891 5.7398C0.906891 4.67324 1.77273 3.92627 2.8167 3.92627C3.59566 3.92627 4.82773 4.88037 4.82773 5.7398C4.82773 6.59922 4.82773 6.99349 4.15215 7.5939C3.88003 7.83574 3.20581 8.26763 2.43684 8.38408Z" fill="#FFD018"/>
<path fill-rule="evenodd" clip-rule="evenodd" d="M2.49572 4.93988C2.45758 4.92981 2.41849 4.95257 2.40842 4.99071L2.38112 5.09412C2.37975 5.09235 2.37838 5.09058 2.37701 5.0888C2.3529 5.05758 2.30804 5.05182 2.27682 5.07593C2.2456 5.10004 2.23983 5.1449 2.26394 5.17612C2.28049 5.19755 2.29682 5.21873 2.31293 5.23965L2.23061 5.31566C2.20163 5.34242 2.19983 5.38761 2.22659 5.4166C2.25336 5.44558 2.29855 5.44738 2.32753 5.42062L2.40027 5.35345C2.44369 5.41022 2.48531 5.46489 2.52507 5.51741L2.38814 5.59092C2.35338 5.60958 2.34034 5.65288 2.35899 5.68764C2.37765 5.72239 2.42096 5.73544 2.45571 5.71679L2.6121 5.63283C2.64962 5.6828 2.6852 5.73049 2.71878 5.77582L2.531 5.87663C2.49624 5.89529 2.48319 5.9386 2.50185 5.97335C2.52051 6.00811 2.56381 6.02116 2.59857 6.0025L2.80434 5.89203C2.85906 5.9669 2.90704 6.03367 2.948 6.09186L2.81671 6.16235C2.78196 6.18101 2.76891 6.22431 2.78757 6.25907C2.80623 6.29382 2.84953 6.30687 2.88428 6.28821L3.02959 6.2102C3.09003 6.30026 3.12132 6.35429 3.12132 6.36851C3.12132 6.40796 3.1533 6.43994 3.19275 6.43994C3.2322 6.43994 3.26418 6.40796 3.26418 6.36851C3.26418 6.33235 3.22657 6.25631 3.14798 6.13445C3.14911 6.13247 3.15016 6.13044 3.15111 6.12835L3.2568 5.89563C3.27312 5.85971 3.25722 5.81737 3.22131 5.80105C3.18539 5.78474 3.14305 5.80063 3.12673 5.83655L3.05452 5.99554C3.00941 5.93061 2.95675 5.85711 2.89629 5.7746L2.97109 5.60991C2.9874 5.57399 2.97151 5.53165 2.93559 5.51534C2.89967 5.49903 2.85733 5.51492 2.84102 5.55084L2.79909 5.64316L2.72704 5.54701L2.82823 5.3242C2.84455 5.28828 2.82865 5.24594 2.79273 5.22963C2.75682 5.21331 2.71448 5.22921 2.69816 5.26512L2.62899 5.41742C2.58543 5.3601 2.53949 5.29999 2.49114 5.23701L2.54654 5.02718C2.55662 4.98904 2.53386 4.94996 2.49572 4.93988Z" fill="#FFD018"/>
<path fill-rule="evenodd" clip-rule="evenodd" d="M2.97608 4.93988C3.01422 4.92981 3.05331 4.95257 3.06338 4.99071L3.09069 5.09412C3.09205 5.09235 3.09342 5.09058 3.09479 5.0888C3.1189 5.05758 3.16376 5.05182 3.19498 5.07593C3.22621 5.10004 3.23197 5.1449 3.20786 5.17612C3.19131 5.19755 3.17498 5.21873 3.15887 5.23965L3.24119 5.31566C3.27017 5.34242 3.27197 5.38761 3.24521 5.4166C3.21845 5.44558 3.17326 5.44738 3.14427 5.42062L3.07154 5.35345C3.02811 5.41022 2.98649 5.46489 2.94673 5.51741L3.08366 5.59092C3.11842 5.60958 3.13147 5.65288 3.11281 5.68764C3.09415 5.72239 3.05085 5.73544 3.01609 5.71679L2.8597 5.63283C2.82218 5.6828 2.78661 5.73049 2.75302 5.77582L2.9408 5.87663C2.97556 5.89529 2.98861 5.9386 2.96995 5.97335C2.95129 6.00811 2.90799 6.02116 2.87323 6.0025L2.66746 5.89203C2.61274 5.9669 2.56476 6.03367 2.5238 6.09186L2.65509 6.16235C2.68985 6.18101 2.7029 6.22431 2.68424 6.25907C2.66558 6.29382 2.62227 6.30687 2.58752 6.28821L2.44221 6.2102C2.38177 6.30026 2.35048 6.35429 2.35048 6.36851C2.35048 6.40796 2.3185 6.43994 2.27905 6.43994C2.2396 6.43994 2.20762 6.40796 2.20762 6.36851C2.20762 6.33235 2.24523 6.25631 2.32382 6.13445C2.32269 6.13247 2.32164 6.13044 2.32069 6.12835L2.215 5.89563C2.19868 5.85971 2.21458 5.81737 2.2505 5.80105C2.28641 5.78474 2.32876 5.80063 2.34507 5.83655L2.41728 5.99554C2.46239 5.93061 2.51505 5.85711 2.57551 5.7746L2.50071 5.60991C2.4844 5.57399 2.50029 5.53165 2.53621 5.51534C2.57213 5.49903 2.61447 5.51492 2.63078 5.55084L2.67271 5.64316L2.74476 5.54701L2.64357 5.3242C2.62726 5.28828 2.64315 5.24594 2.67907 5.22963C2.71499 5.21331 2.75733 5.22921 2.77364 5.26512L2.84281 5.41742C2.88637 5.3601 2.93231 5.29999 2.98066 5.23701L2.92526 5.02718C2.91519 4.98904 2.93794 4.94996 2.97608 4.93988Z" fill="#FFD018"/>
</g>
</svg>

<svg width="16" height="12" fill="none" xmlns="http://www.w3.org/2000/svg">
  <mask id="a" maskUnits="userSpaceOnUse" x="0" y="0" width="16" height="12">
    <path fill="#fff" d="M0 0h16v12H0z"/>
  </mask>
  <g mask="url(#a)">
    <path fill-rule="evenodd" clip-rule="evenodd" d="M0 0h16v12H0V0z" fill="#F7FCFF"/>
    <path fill-rule="evenodd" clip-rule="evenodd" d="M0 0v4h16V0H0z" fill="#C51918"/>
    <path fill-rule="evenodd" clip-rule="evenodd" d="M0 8v4h16V8H0z" fill="#5EAA22"/>
    <path fill-rule="evenodd" clip-rule="evenodd" d="M0-1l8.335 7L0 13V-1z" fill="#272727"/>
    <mask id="b" maskUnits="userSpaceOnUse" x="-1" y="-4.677" width="18" height="21" fill="#000">
      <path fill="#fff" d="M-1-4.677h18v21H-1z"/>
      <path fill-rule="evenodd" clip-rule="evenodd" d="M0-1.677L8.704 5H16v2H8.585L0 13.406V11.17L7 6 0 .767v-2.444z"/>
    </mask>
    <path fill-rule="evenodd" clip-rule="evenodd" d="M0-1.677L8.704 5H16v2H8.585L0 13.406V11.17L7 6 0 .767v-2.444z" fill="#FFD018"/>
    <path d="M8.704 5l-.609.793.27.207h.34V5zM0-1.677l.609-.794L-1-3.705v2.028h1zM16 5h1V4h-1v1zm0 2v1h1V7h-1zM8.585 7V6h-.332l-.266.199.598.801zM0 13.406h-1V15.4l1.598-1.193L0 13.406zm0-2.236l-.594-.804-.406.3v.504h1zM7 6l.594.804 1.083-.8L7.599 5.2 7 6zM0 .767h-1v.501l.401.3.599-.8zm9.313 3.44L.609-2.471-.61-.884l8.704 6.677 1.218-1.586zM16 4H8.704v2H16V4zm1 3V5h-2v2h2zM8.585 8H16V6H8.585v2zM.598 14.207l8.585-6.406L7.987 6.2l-8.585 6.405 1.196 1.603zM-1 11.17v2.236h2V11.17h-2zm7.406-5.974l-7 5.17 1.188 1.609 7-5.17-1.188-1.61zM-.6 1.568l7 5.233 1.2-1.602-7-5.233-1.2 1.602zM-1-1.677V.767h2v-2.444h-2z" fill="#272727" mask="url(#b)"/>
    <path d="M2.437 8.384v-.79c.705-.155 1.171-.358 1.399-.6.559-.69.187-2.304-.962-2.294-.569 0-1.157.272-1.157.91 0 .793.163 1.132.72 1.132.555 0 .759.03 1.124-.469l.396.123c-.391.533-.919.955-1.52.955-.991 0-1.53-.747-1.53-1.611 0-1.067.866-1.814 1.91-1.814.779 0 2.01.954 2.01 1.814 0 .86 0 1.253-.675 1.854a3.666 3.666 0 01-1.715.79z" fill="#FFD018"/>
    <path fill-rule="evenodd" clip-rule="evenodd" d="M2.496 4.94a.071.071 0 00-.088.05l-.027.104-.004-.005a.071.071 0 00-.113.087l.049.064-.082.076a.071.071 0 00.097.105l.072-.068.125.164-.137.074a.071.071 0 00.068.126l.156-.084.107.143-.188.1a.071.071 0 10.068.127l.205-.111a14 14 0 01.144.2l-.131.07a.071.071 0 00.067.126l.146-.078c.06.09.091.144.091.159a.071.071 0 10.143 0c0-.037-.037-.113-.116-.235a.075.075 0 00.003-.006l.106-.232a.071.071 0 10-.13-.06l-.072.16a10.927 10.927 0 00-.159-.221l.075-.165a.071.071 0 10-.13-.06l-.042.093-.072-.096.101-.223a.071.071 0 10-.13-.059l-.069.152-.138-.18.056-.21a.071.071 0 00-.051-.087z" fill="#FFD018"/>
    <path fill-rule="evenodd" clip-rule="evenodd" d="M2.976 4.94a.071.071 0 01.087.05l.028.104.004-.005a.071.071 0 01.113.087l-.05.064.083.076a.071.071 0 01-.097.105l-.072-.068-.125.164.137.074a.071.071 0 11-.068.126l-.156-.084-.107.143.188.1a.071.071 0 11-.068.127l-.206-.111a14 14 0 00-.143.2l.131.07a.071.071 0 11-.067.126l-.146-.078a.665.665 0 00-.092.159.071.071 0 11-.142 0c0-.037.037-.113.116-.235a.075.075 0 01-.003-.006l-.106-.232a.071.071 0 11.13-.06l.072.16c.045-.065.098-.139.159-.221L2.5 5.61a.071.071 0 11.13-.06l.042.093.072-.096-.101-.223a.071.071 0 01.13-.059l.069.152.138-.18-.056-.21a.071.071 0 01.051-.087z" fill="#FFD018"/>
  </g>
</svg>
